X: 23269
T: Leaving Of Liverpool, The
R: polka
M: 2/4
K: Dmajor
DE|F3A|GF ED|d2 B2|A2 DE|FAAA|B2 AF|E4|z|
A AG|F3A|GF ED|d2 B2|A2 DE|FA AF|E3 D|D4|Dz||
z2|"D"z4|"A"z4|"G"z4|"D"z4|"D"z4|"G"z4|"A"z4|"A7"z|
z3|"D"z4|"A"z4|"G"z4|"D"z4|"D"z4|"A"z4|"D"z4|"D"z2||
cd|e3c|A2 ce|d2 B2|A2 DE|FAAA|B2 AF|E4|z|
AAG|F3A|GF ED|d2 B2|A2 DE|FA AF|E3 D|D4|Dz||
z2|"A"z4|z4|"G"z4|"D"z4|z4|"G"z4|"A"z4|"A7"z|
z3|"D"z4|"A"z4|"G"z4|"D"z4|"D"z4|"A"z4|"D"z4|"D"z2||

